packages/match-logos/color/svg/glassdoor.svg

<svg fill="none" height="40" viewBox="0 0 209 40" width="209" xmlns="http://www.w3.org/2000/svg" xmlns:xlink="http://www.w3.org/1999/xlink"><clipPath id="a"><path d="m0 0h208.029v40h-208.029z"/></clipPath><g clip-path="url(#a)" fill="#0caa41"><path d="m22.5628 8.76148h-4.8115c-.1262 0-.2472.05014-.3365.13939-.0892.08925-.1394.2103-.1394.33652v2.56041c-1.2135-1.9798-3.7739-3.59789-7.1386-3.59789-5.43959 0-10.1129963 4.09279-10.1129963 11.42179s4.4497363 11.279 10.2890963 11.279c3.1458 0 5.6205-1.2992 7.0577-3.3694v1.3944c0 3.1457-1.5276 5.6633-6.4247 5.6633-2.29273.0385-4.51085-.8146-6.18682-2.3796-.05271-.0422-.11337-.0734-.17838-.0918-.06501-.0183-.13304-.0235-.20006-.015-.06703.0084-.13167.0302-.19011.0641-.05843.0339-.10946.0792-.15007.1332l-2.15586 3.6406c-.27126.4759-.22368.7187-.04283.8995 2.24628 1.9322 5.16835 3.1458 9.38963 3.1458 9.2136 0 11.8977-5.1256 11.8977-10.7841v-19.96431c-.0145-.13719-.0816-.26344-.1872-.35219s-.2415-.1331-.3791-.12372zm-10.8745 16.81382c-3.27901 0-5.75373-2.3367-5.75373-5.887s2.46996-5.8917 5.75373-5.8917c3.2837 0 5.7109 2.251 5.7109 5.8917s-2.4319 5.887-5.7109 5.887zm21.9774-25.080326v29.706126c0 .1262-.0502.2473-.1394.3365-.0893.0893-.2103.1394-.3365.1394h-4.8543c-.1243-.0058-.242-.0578-.3301-.1458-.088-.088-.14-.2057-.1458-.3301v-29.706126c.0058-.124352.0578-.242062.1458-.330087.0881-.0880256.2058-.1400271.3301-.1458201h4.8543c.1254.0012539.2452.0519491.3334.1410631.0882.089115.1377.209446.1377.334844zm14.2867 7.790606c-4.583 0-8.0428 1.52766-9.6181 4.58302-.0558.108-.0681.2332-.0345.35.0337.1168.1107.2163.2154.2782l3.5074 2.5175c.0525.0364.1117.0618.1742.0748s.127.0133.1896.0008c.0626-.0124.122-.0373.1748-.0732s.0978-.082.1324-.1356c.9899-1.7514 3.1458-2.3367 5.235-2.3367 2.608 0 3.8073.8994 3.8073 2.1986v.3617c0 .5378-.3141.8091-1.1232.8995l-6.0249.5378c-4.0453.4045-7.0102 2.8554-7.0102 6.8768s3.0554 6.8341 7.4147 6.8341c3.417 0 5.6204-1.6657 6.7436-3.4171v2.47c0 .1262.0501.2473.1394.3365.0892.0893.2103.1394.3365.1394h4.8066c.1263 0 .2473-.0501.3366-.1394.0892-.0892.1394-.2103.1394-.3365v-13.0922c.0761-6.1107-3.1601-8.92802-9.542-8.92802zm3.8073 13.57282c0 2.4272-1.9798 4.4926-5.0351 4.4926-2.0226 0-3.0982-.8995-3.0982-2.3367 0-1.2136.9518-2.1559 2.6937-2.4271l5.4396-.6758zm28.8542 2.2035c0 4.9875-3.6407 7.1386-9.4848 7.1386-4.0452 0-7.5051-1.0803-9.4848-3.3313-.0652-.0918-.1002-.2016-.1002-.3141 0-.1126.035-.2224.1002-.3141l2.7888-3.5931c.0411-.0546.0936-.0996.1537-.1321s.1265-.0516.1947-.0561.1365.0057.2004.0299c.0639.0243.1218.062.1698.1107 1.4848 1.4848 3.7311 2.4271 6.5628 2.4271 1.6181 0 2.922-.4474 2.922-1.6609 0-1.2136-1.1707-1.4277-4.8542-2.2511-3.2362-.671-7.2814-2.1558-7.2814-6.9197 0-4.4497 3.5074-6.96723 9.2564-6.96723 3.7787 0 6.4723 1.12314 8.4045 2.92203.0834.0906.1336.2068.1422.3296.0087.1228-.0247.2449-.0946.3462l-2.6508 3.417c-.0383.0507-.0863.0932-.1412.125s-.1157.0523-.1786.0603c-.063.0079-.127.0032-.1881-.0139s-.1182-.0462-.1679-.0857c-1.304-1.166-3.4598-1.9036-5.5729-1.9036-1.7989 0-2.7888.5853-2.7888 1.5276 0 1.0803 1.1708 1.3469 5.078 2.2035 3.7929.8661 7.0291 2.3034 7.0291 6.8911zm22.2441 0c0 4.9875-3.6409 7.1386-9.4802 7.1386-4.0452 0-7.5051-1.0803-9.4849-3.3313-.0651-.0918-.1001-.2016-.1001-.3141 0-.1126.035-.2224.1001-.3141l2.7888-3.5931c.0412-.0546.0936-.0996.1538-.1321.0601-.0325.1265-.0516.1947-.0561s.1365.0057.2004.0299c.0639.0243.1218.062.1698.1107 1.48 1.4848 3.7263 2.4271 6.558 2.4271 1.618 0 2.922-.4474 2.922-1.6609 0-1.2136-1.1659-1.4277-4.8542-2.2511-3.2362-.671-7.2814-2.1558-7.2814-6.9197 0-4.4497 3.5074-6.96723 9.2612-6.96723 3.7739 0 6.472 1.12314 8.404 2.92203.084.0907.134.2073.142.3303.007.1231-.027.245-.099.3455l-2.6505 3.417c-.0383.0507-.0863.0932-.1412.125s-.1157.0523-.1786.0603c-.063.0079-.1269.0032-.1881-.0139-.0611-.0171-.1182-.0462-.1679-.0857-1.2992-1.166-3.4598-1.9036-5.5729-1.9036-1.7941 0-2.784.5853-2.784 1.5276 0 1.0803 1.166 1.3469 5.0779 2.2035 3.7882.8661 7.0243 2.3034 7.0243 6.8911zm25.751-24.0475896h-4.807c-.126 0-.247.0501397-.336.1393896-.089.08925-.139.210299-.139.336518v11.421782c-.826-1.1821-1.931-2.14147-3.217-2.79252-1.286-.65104-2.714-.9735-4.155-.9386-5.345 0-9.885 4.13562-9.885 11.55022 0 7.4147 4.54 11.5075 9.994 11.5075 1.421.0447 2.83-.2646 4.101-.9001 1.271-.6356 2.364-1.5774 3.181-2.7406v2.5794c0 .1262.05.2473.139.3365.089.0893.21.1394.337.1394h4.806c.126 0 .247-.0501.337-.1394.089-.0892.139-.2103.139-.3365v-29.725156c-.006-.122876-.06-.238598-.149-.322891-.09-.0842922-.209-.13060665-.332-.12922286zm-10.874 25.6180896c-3.279 0-5.754-2.3367-5.754-5.887 0-3.5502 2.475-5.887 5.754-5.887s5.791 2.2321 5.791 5.8727c0 3.6407-2.541 5.887-5.777 5.887zm26.741-17.39441c-6.739 0-11.774 4.63061-11.774 11.50741 0 6.8769 5.035 11.5075 11.774 11.5075s11.774-4.6306 11.774-11.5075c0-6.8768-5.016-11.52169-11.76-11.52169zm0 17.30401c-1.156-.0029-2.285-.3482-3.244-.9925s-1.706-1.5586-2.146-2.6273-.553-2.2438-.325-3.3767c.228-1.133.786-2.173 1.605-2.9885s1.861-1.3699 2.995-1.5932 2.309-.1053 3.376.3389c1.066.4442 1.978 1.1947 2.618 2.1567s.981 2.0923.979 3.2479c-.047 3.5313-2.565 5.8204-5.844 5.8204zm26.741-17.30401c-6.743 0-11.774 4.63061-11.774 11.50741 0 6.8769 5.031 11.5075 11.774 11.5075 6.744 0 11.798-4.6449 11.798-11.5218 0-6.8768-4.997-11.50739-11.784-11.50739zm0 17.30401c-1.156-.0029-2.284-.3482-3.244-.9925-.959-.6443-1.706-1.5586-2.146-2.6273s-.553-2.2438-.325-3.3767c.228-1.133.787-2.173 1.605-2.9885.819-.8155 1.861-1.3699 2.995-1.5932s2.309-.1053 3.376.3389 1.978 1.1947 2.618 2.1567c.641.962.981 2.0923.98 3.2479 0 3.5313-2.518 5.8204-5.845 5.8204zm30.787-16.26654c-.009-.11384-.047-.22353-.11-.31853-.064-.09501-.15-.17214-.252-.224-.781-.32602-1.626-.46457-2.47-.40452-3.055 0-5.797 1.52766-6.967 4.04519v-3.11241c0-.12622-.05-.24727-.14-.33652-.089-.08925-.21-.13939-.336-.13939h-4.583c-.126 0-.248.05014-.337.13939s-.139.2103-.139.33652v20.93991c0 .1262.05.2473.139.3365.089.0893.211.1394.337.1394h4.806c.127 0 .248-.0501.337-.1394.089-.0892.139-.2103.139-.3365v-9.4372c.015-4.2261 2.96-6.2915 6.768-6.2915.75-.0111 1.496.1114 2.203.3617.074.025.152.0315.229.0191s.15-.0435.212-.0905c.062-.0469.111-.1083.144-.1789.033-.0705.047-.148.043-.2256z"/><path d="m204.535 7.54786c-.002-.1608.019-.32111.062-.47591.04-.14672.099-.28753.176-.4188.076-.12974.167-.24963.272-.35693.108-.10377.228-.19479.357-.27126.129-.07798.268-.13726.414-.17609.31-.09341.641-.09341.951 0 .148.03796.289.09728.419.17609.129.07647.249.16749.357.27126.105.1073.196.22719.271.35693.077.13127.136.27208.176.4188.044.1548.065.31511.062.47591.002.16077-.018.32101-.062.4759-.041.14491-.1.28404-.176.41405-.148.26255-.365.47972-.628.62819-.13.07881-.271.13813-.419.17609-.311.08689-.64.08689-.951 0-.146-.03883-.285-.09812-.414-.17609-.263-.14847-.48-.36564-.629-.62819-.076-.13001-.135-.26914-.176-.41405-.043-.15483-.064-.31512-.062-.4759zm.238 0c0 .13809.018.27561.053.40928.033.13029.084.25525.152.3712.066.11113.145.21483.233.30935.091.09212.193.17211.305.23795.113.0661.235.11729.361.15229.132.0347.268.05229.405.05235.203.00202.404-.03852.59-.11898.363-.15683.652-.44859.804-.8138.081-.18946.122-.39367.119-.59964 0-.13805-.018-.2755-.052-.40928-.037-.12892-.088-.25339-.152-.37121-.066-.11286-.146-.21682-.238-.30934-.091-.09392-.193-.17553-.305-.24271-.112-.06803-.234-.11933-.362-.15229-.329-.09468-.681-.0711-.994.06663-.276.12249-.51.32291-.673.57658s-.248.54952-.246.85114zm1.162.21892v.84711h-.372v-2.13682h.69c.214-.01499.428.03833.61.15229.066.05084.12.11742.154.19381.035.07639.051.16022.045.24402.005.13966-.041.27626-.128.38549-.1.11195-.234.1887-.381.21891.026.015.048.03433.067.05711l.057.08567.547.79952h-.357c-.023.00077-.045-.00456-.065-.01544-.02-.01087-.037-.0269-.049-.04643l-.476-.72338c-.014-.01942-.031-.03565-.052-.04759-.032-.00654-.064-.00654-.095 0zm0-.27603h.28c.074.01067.15.01067.224 0 .053-.01408.103-.03832.148-.07139.036-.03237.064-.07325.08-.11897.008-.05365.008-.10817 0-.16181.011-.05025.011-.10205 0-.15229-.012-.04291-.037-.08109-.071-.10946-.04-.03249-.087-.05528-.138-.06663-.068-.00871-.137-.00871-.205 0h-.318z"/></g></svg>

<svg width="209" height="40" viewBox="0 0 209 40" fill="none" xmlns="http://www.w3.org/2000/svg">
<g clip-path="url(#clip0)">
<path d="M22.5628 8.76148H17.7513C17.6251 8.76148 17.5041 8.81162 17.4148 8.90087C17.3256 8.99012 17.2754 9.11117 17.2754 9.23739V11.7978C16.0619 9.818 13.5015 8.19991 10.1368 8.19991C4.69721 8.19991 0.0238037 12.2927 0.0238037 19.6217C0.0238037 26.9507 4.47354 30.9007 10.3129 30.9007C13.4587 30.9007 15.9334 29.6015 17.3706 27.5313V28.9257C17.3706 32.0714 15.843 34.589 10.9459 34.589C8.65317 34.6275 6.43505 33.7744 4.75908 32.2094C4.70637 32.1672 4.64571 32.136 4.5807 32.1176C4.51569 32.0993 4.44766 32.0941 4.38064 32.1026C4.31361 32.111 4.24897 32.1328 4.19053 32.1667C4.1321 32.2006 4.08107 32.2459 4.04046 32.2999L1.8846 35.9405C1.61334 36.4164 1.66092 36.6592 1.84177 36.84C4.08805 38.7722 7.01012 39.9858 11.2314 39.9858C20.445 39.9858 23.1291 34.8602 23.1291 29.2017V9.23739C23.1146 9.1002 23.0475 8.97395 22.9419 8.8852C22.8363 8.79645 22.7004 8.7521 22.5628 8.76148ZM11.6883 25.5753C8.40929 25.5753 5.93457 23.2386 5.93457 19.6883C5.93457 16.138 8.40453 13.7966 11.6883 13.7966C14.972 13.7966 17.3992 16.0476 17.3992 19.6883C17.3992 23.329 14.9673 25.5753 11.6883 25.5753ZM33.6657 0.494974V30.2011C33.6657 30.3273 33.6155 30.4484 33.5263 30.5376C33.437 30.6269 33.316 30.677 33.1898 30.677H28.3355C28.2112 30.6712 28.0935 30.6192 28.0054 30.5312C27.9174 30.4432 27.8654 30.3255 27.8596 30.2011V0.494974C27.8654 0.370622 27.9174 0.252912 28.0054 0.164887C28.0935 0.0768614 28.2112 0.0248599 28.3355 0.0190669H33.1898C33.3152 0.0203208 33.435 0.071016 33.5232 0.16013C33.6114 0.249245 33.6609 0.369576 33.6609 0.494974H33.6657ZM47.9524 8.28558C43.3694 8.28558 39.9096 9.81324 38.3343 12.8686C38.2785 12.9766 38.2662 13.1018 38.2998 13.2186C38.3335 13.3354 38.4105 13.4349 38.5152 13.4968L42.0226 16.0143C42.0751 16.0507 42.1343 16.0761 42.1968 16.0891C42.2593 16.1021 42.3238 16.1024 42.3864 16.0899C42.449 16.0775 42.5084 16.0526 42.5612 16.0167C42.614 15.9808 42.659 15.9347 42.6936 15.8811C43.6835 14.1297 45.8394 13.5444 47.9286 13.5444C50.5366 13.5444 51.7359 14.4438 51.7359 15.743V16.1047C51.7359 16.6425 51.4218 16.9138 50.6127 17.0042L44.5878 17.542C40.5425 17.9465 37.5776 20.3974 37.5776 24.4188C37.5776 28.4402 40.633 31.2529 44.9923 31.2529C48.4093 31.2529 50.6127 29.5872 51.7359 27.8358V30.3058C51.7359 30.432 51.786 30.5531 51.8753 30.6423C51.9645 30.7316 52.0856 30.7817 52.2118 30.7817H57.0184C57.1447 30.7817 57.2657 30.7316 57.355 30.6423C57.4442 30.5531 57.4944 30.432 57.4944 30.3058V17.2136C57.5705 11.1029 54.3343 8.28558 47.9524 8.28558ZM51.7597 21.8584C51.7597 24.2856 49.7799 26.351 46.7246 26.351C44.702 26.351 43.6264 25.4515 43.6264 24.0143C43.6264 22.8007 44.5782 21.8584 46.3201 21.5872L51.7597 20.9114V21.8584ZM80.6139 24.0619C80.6139 29.0494 76.9732 31.2005 71.1291 31.2005C67.0839 31.2005 63.624 30.1202 61.6443 27.8692C61.5791 27.7774 61.5441 27.6676 61.5441 27.5551C61.5441 27.4425 61.5791 27.3327 61.6443 27.241L64.4331 23.6479C64.4742 23.5933 64.5267 23.5483 64.5868 23.5158C64.6469 23.4833 64.7133 23.4642 64.7815 23.4597C64.8497 23.4552 64.918 23.4654 64.9819 23.4896C65.0458 23.5139 65.1037 23.5516 65.1517 23.6003C66.6365 25.0851 68.8828 26.0274 71.7145 26.0274C73.3326 26.0274 74.6365 25.58 74.6365 24.3665C74.6365 23.1529 73.4658 22.9388 69.7823 22.1154C66.5461 21.4444 62.5009 19.9596 62.5009 15.1957C62.5009 10.746 66.0083 8.22847 71.7573 8.22847C75.536 8.22847 78.2296 9.35161 80.1618 11.1505C80.2452 11.2411 80.2954 11.3573 80.304 11.4801C80.3127 11.6029 80.2793 11.725 80.2094 11.8263L77.5586 15.2433C77.5203 15.294 77.4723 15.3365 77.4174 15.3683C77.3625 15.4001 77.3017 15.4206 77.2388 15.4286C77.1758 15.4365 77.1118 15.4318 77.0507 15.4147C76.9896 15.3976 76.9325 15.3685 76.8828 15.329C75.5788 14.163 73.423 13.4254 71.3099 13.4254C69.511 13.4254 68.5211 14.0107 68.5211 14.953C68.5211 16.0333 69.6919 16.2999 73.5991 17.1565C77.392 18.0226 80.6282 19.4599 80.6282 24.0476L80.6139 24.0619ZM102.858 24.0619C102.858 29.0494 99.2171 31.2005 93.3778 31.2005C89.3326 31.2005 85.8727 30.1202 83.8929 27.8692C83.8278 27.7774 83.7928 27.6676 83.7928 27.5551C83.7928 27.4425 83.8278 27.3327 83.8929 27.241L86.6817 23.6479C86.7229 23.5933 86.7753 23.5483 86.8355 23.5158C86.8956 23.4833 86.962 23.4642 87.0302 23.4597C87.0984 23.4552 87.1667 23.4654 87.2306 23.4896C87.2945 23.5139 87.3524 23.5516 87.4004 23.6003C88.8804 25.0851 91.1267 26.0274 93.9584 26.0274C95.5764 26.0274 96.8804 25.58 96.8804 24.3665C96.8804 23.1529 95.7145 22.9388 92.0262 22.1154C88.79 21.4444 84.7448 19.9596 84.7448 15.1957C84.7448 10.746 88.2522 8.22847 94.006 8.22847C97.7799 8.22847 100.478 9.35161 102.41 11.1505C102.494 11.2412 102.544 11.3578 102.552 11.4808C102.559 11.6039 102.525 11.7258 102.453 11.8263L99.8025 15.2433C99.7642 15.294 99.7162 15.3365 99.6613 15.3683C99.6064 15.4001 99.5456 15.4206 99.4827 15.4286C99.4197 15.4365 99.3558 15.4318 99.2946 15.4147C99.2335 15.3976 99.1764 15.3685 99.1267 15.329C97.8275 14.163 95.6669 13.4254 93.5538 13.4254C91.7597 13.4254 90.7698 14.0107 90.7698 14.953C90.7698 16.0333 91.9358 16.2999 95.8477 17.1565C99.6359 18.0226 102.872 19.4599 102.872 24.0476L102.858 24.0619ZM128.609 0.0143104H123.802C123.676 0.0143104 123.555 0.0644501 123.466 0.1537C123.377 0.24295 123.327 0.363999 123.327 0.490218V11.912C122.501 10.7299 121.396 9.77053 120.11 9.11948C118.824 8.46844 117.396 8.14598 115.955 8.18088C110.61 8.18088 106.07 12.3165 106.07 19.7311C106.07 27.1458 110.61 31.2386 116.064 31.2386C117.485 31.2833 118.894 30.974 120.165 30.3385C121.436 29.7029 122.529 28.7611 123.346 27.5979V30.1773C123.346 30.3035 123.396 30.4246 123.485 30.5138C123.574 30.6031 123.695 30.6532 123.822 30.6532H128.628C128.754 30.6532 128.875 30.6031 128.965 30.5138C129.054 30.4246 129.104 30.3035 129.104 30.1773V0.452144C129.098 0.329268 129.044 0.213546 128.955 0.129253C128.865 0.0449608 128.746 -0.00135365 128.623 3.01389e-05L128.609 0.0143104ZM117.735 25.6324C114.456 25.6324 111.981 23.2957 111.981 19.7454C111.981 16.1952 114.456 13.8584 117.735 13.8584C121.014 13.8584 123.526 16.0905 123.526 19.7311C123.526 23.3718 120.985 25.6181 117.749 25.6181L117.735 25.6324ZM144.476 8.23799C137.737 8.23799 132.702 12.8686 132.702 19.7454C132.702 26.6223 137.737 31.2529 144.476 31.2529C151.215 31.2529 156.25 26.6223 156.25 19.7454C156.25 12.8686 151.234 8.22371 144.49 8.22371L144.476 8.23799ZM144.476 25.542C143.32 25.5391 142.191 25.1938 141.232 24.5495C140.273 23.9052 139.526 22.9909 139.086 21.9222C138.646 20.8535 138.533 19.6784 138.761 18.5455C138.989 17.4125 139.547 16.3725 140.366 15.557C141.185 14.7415 142.227 14.1871 143.361 13.9638C144.495 13.7405 145.67 13.8585 146.737 14.3027C147.803 14.7469 148.715 15.4974 149.355 16.4594C149.995 17.4214 150.336 18.5517 150.334 19.7073C150.287 23.2386 147.769 25.5277 144.49 25.5277L144.476 25.542ZM171.217 8.23799C164.474 8.23799 159.443 12.8686 159.443 19.7454C159.443 26.6223 164.474 31.2529 171.217 31.2529C177.961 31.2529 183.015 26.608 183.015 19.7311C183.015 12.8543 178.018 8.22371 171.231 8.22371L171.217 8.23799ZM171.217 25.542C170.061 25.5391 168.933 25.1938 167.973 24.5495C167.014 23.9052 166.267 22.9909 165.827 21.9222C165.387 20.8535 165.274 19.6784 165.502 18.5455C165.73 17.4125 166.289 16.3725 167.107 15.557C167.926 14.7415 168.968 14.1871 170.102 13.9638C171.236 13.7405 172.411 13.8585 173.478 14.3027C174.545 14.7469 175.456 15.4974 176.096 16.4594C176.737 17.4214 177.077 18.5517 177.076 19.7073C177.076 23.2386 174.558 25.5277 171.231 25.5277L171.217 25.542ZM202.004 9.27546C201.995 9.16162 201.957 9.05193 201.894 8.95693C201.83 8.86192 201.744 8.78479 201.642 8.73293C200.861 8.40691 200.016 8.26836 199.172 8.32841C196.117 8.32841 193.375 9.85607 192.205 12.3736V9.26119C192.205 9.13497 192.155 9.01392 192.065 8.92467C191.976 8.83542 191.855 8.78528 191.729 8.78528H187.146C187.02 8.78528 186.898 8.83542 186.809 8.92467C186.72 9.01392 186.67 9.13497 186.67 9.26119V30.2011C186.67 30.3273 186.72 30.4484 186.809 30.5376C186.898 30.6269 187.02 30.677 187.146 30.677H191.952C192.079 30.677 192.2 30.6269 192.289 30.5376C192.378 30.4484 192.428 30.3273 192.428 30.2011V20.7639C192.443 16.5378 195.388 14.4724 199.196 14.4724C199.946 14.4613 200.692 14.5838 201.399 14.8341C201.473 14.8591 201.551 14.8656 201.628 14.8532C201.705 14.8408 201.778 14.8097 201.84 14.7627C201.902 14.7158 201.951 14.6544 201.984 14.5838C202.017 14.5133 202.031 14.4358 202.027 14.3582L202.004 9.27546Z" fill="#0CAA41"/>
<path d="M204.535 7.54786C204.533 7.38706 204.554 7.22675 204.597 7.07195C204.637 6.92523 204.696 6.78442 204.773 6.65315C204.849 6.52341 204.94 6.40352 205.045 6.29622C205.153 6.19245 205.273 6.10143 205.402 6.02496C205.531 5.94698 205.67 5.8877 205.816 5.84887C206.126 5.75546 206.457 5.75546 206.767 5.84887C206.915 5.88683 207.056 5.94615 207.186 6.02496C207.315 6.10143 207.435 6.19245 207.543 6.29622C207.648 6.40352 207.739 6.52341 207.814 6.65315C207.891 6.78442 207.95 6.92523 207.99 7.07195C208.034 7.22675 208.055 7.38706 208.052 7.54786C208.054 7.70863 208.034 7.86887 207.99 8.02376C207.949 8.16867 207.89 8.3078 207.814 8.43781C207.666 8.70036 207.449 8.91753 207.186 9.066C207.056 9.14481 206.915 9.20413 206.767 9.24209C206.456 9.32898 206.127 9.32898 205.816 9.24209C205.67 9.20326 205.531 9.14397 205.402 9.066C205.139 8.91753 204.922 8.70036 204.773 8.43781C204.697 8.3078 204.638 8.16867 204.597 8.02376C204.554 7.86893 204.533 7.70864 204.535 7.54786ZM204.773 7.54786C204.773 7.68595 204.791 7.82347 204.826 7.95714C204.859 8.08743 204.91 8.21239 204.978 8.32834C205.044 8.43947 205.123 8.54317 205.211 8.63769C205.302 8.72981 205.404 8.8098 205.516 8.87564C205.629 8.94174 205.751 8.99293 205.877 9.02793C206.009 9.06263 206.145 9.08022 206.282 9.08028C206.485 9.0823 206.686 9.04176 206.872 8.9613C207.235 8.80447 207.524 8.51271 207.676 8.1475C207.757 7.95804 207.798 7.75383 207.795 7.54786C207.795 7.40981 207.777 7.27236 207.743 7.13858C207.706 7.00966 207.655 6.88519 207.591 6.76737C207.525 6.65451 207.445 6.55055 207.353 6.45803C207.262 6.36411 207.16 6.2825 207.048 6.21532C206.936 6.14729 206.814 6.09599 206.686 6.06303C206.357 5.96835 206.005 5.99193 205.692 6.12966C205.416 6.25215 205.182 6.45257 205.019 6.70624C204.856 6.95991 204.771 7.25576 204.773 7.55738V7.54786ZM205.935 7.76678V8.61389H205.563V6.47707H206.253C206.467 6.46208 206.681 6.5154 206.863 6.62936C206.929 6.6802 206.983 6.74678 207.017 6.82317C207.052 6.89956 207.068 6.98339 207.062 7.06719C207.067 7.20685 207.021 7.34345 206.934 7.45268C206.834 7.56463 206.7 7.64138 206.553 7.67159C206.579 7.68659 206.601 7.70592 206.62 7.7287L206.677 7.81437L207.224 8.61389H206.867C206.844 8.61466 206.822 8.60933 206.802 8.59845C206.782 8.58758 206.765 8.57155 206.753 8.55202L206.277 7.82864C206.263 7.80922 206.246 7.79299 206.225 7.78105C206.193 7.77451 206.161 7.77451 206.13 7.78105L205.935 7.76678ZM205.935 7.49075H206.215C206.289 7.50142 206.365 7.50142 206.439 7.49075C206.492 7.47667 206.542 7.45243 206.587 7.41936C206.623 7.38699 206.651 7.34611 206.667 7.30039C206.675 7.24674 206.675 7.19222 206.667 7.13858C206.678 7.08833 206.678 7.03653 206.667 6.98629C206.655 6.94338 206.63 6.9052 206.596 6.87683C206.556 6.84434 206.509 6.82155 206.458 6.8102C206.39 6.80149 206.321 6.80149 206.253 6.8102H205.935V7.49075Z" fill="#0CAA41"/>
</g>
<defs>
<clipPath id="clip0">
<rect width="208.029" height="40" fill="white"/>
</clipPath>
</defs>
</svg>
